X:1     %Music
T:The Moon Shines Bright
B:Broadwood, Lucy, 1893, English County Songs, Leadenhall Press, London
S:Mrs Marshall, King's Langley
Z:Lucy Broadwood
M:4/4     %Meter
L:1/8     %
K:D
A2 |A3 A F3 F |G2 GF E2 E2 |F F2 G A2 d2 | A6
w:The moon shines bright, the stars give a light, A lit-tle be-fore 'tis day,
 A2 |A2 G2 F2 EE |DD D2 d2 c2 |A2 AG F2 E2 | D6  |]
w:Our heav'-nly Fa-ther he call-ed to us And bid us to wake and pray.